X:1
T:Title
%%score 1 ( 2 3 4 )
L:1/8
Q:1/4=115
M:4/4
K:G
V:1 treble nm="Grand Piano, Staff 1"
V:2 bass nm="Choir Pad, Ar Hyd Y Nos,84.84.88.84"
V:3 bass 
V:4 bass 
V:1
 [B,G]3 [DF] [CE]2 [CG]2 | [^CA]3 [EG] [DF]2 D2 | [CE]4 [CF]3 [CF] | [B,G]8 | %4
w: By~Welsh~tune;~harmony~by~Luther~O.~Emerson,~1906 * * *||||
 [B,G]3 [DF] [CE]2 [CG]2 | [^CA]3 [EG] [DF]2 D2 | [CE]4 [CF]3 [CF] | [B,G]8 | %8
w: ||||
 [Gc]2 [GB]2 [Gc]2 [Gd]2 | [Ge]2 [Gd]2 [Fc]2 [GB]2 | [Fc]3 [GB] [FA]2 [EG]2 | %11
w: |||
 [EB]2 [EA]2 [DG]2 [DF]2 | [DG]3 [DF] [CE]2 [CG]2 | [^CA]3 [EG] [DF]2 D2 | [CE]4 [CF]3 [CF] | %15
w: ||||
 [B,G]8 |] %16
w: |
V:2
 [G,,G,]3 [B,,G,] [C,G,]2 [E,G,]2 | E,2 A,[^C,A,] [D,A,]2 [B,,G,]2 | %2
 [C,G,]2 [A,,A,]2 [D,A,]3 [D,A,] | [G,,G,]8 | [G,,G,]3 [B,,G,] [C,G,]2 [E,G,]2 | %5
 E,2 A,[^C,A,] [D,A,]2 [B,,G,]2 | [C,G,]2 [A,,A,]2 [D,A,]3 [D,A,] | [G,,G,]8 | %8
 [E,C]2 [D,D]2 [E,C]2 [G,B,]2 | C2 [B,D]2 [A,D]2 [G,D]2 | [A,D]3[K:bass] [G,D] [D,C]2 [E,B,]2 | %11
 [C,C]2 [C,C]2 [D,B,]2 A,-[C,A,] | [B,,G,]3 [B,,G,] [C,G,]2 [E,G,]2 | z2 A,2 z4 | %14
 [C,G,]2 [A,,A,]2 [D,A,]3 [D,A,] | [G,,G,]8 |] %16
V:3
 x8 | A,,4 z4 | x8 | x8 | x8 | A,,4 z4 | x8 | x8 | x8 | x8 | x3[K:bass] x5 | z4 z2 .D,2 | x8 | %13
 E,2 z ^C, [D,A,]2 [B,,G,]2 | x8 | x8 |] %16
V:4
 x8 | x8 | x8 | x8 | x8 | x8 | x8 | x8 | x8 | x8 | x3[K:bass] x5 | x8 | x8 | A,,4 z4 | x8 | x8 |] %16

